lib/svgs/turn-left.svg

<svg xmlns="http://www.w3.org/2000/svg" viewBox="0 0 16 16">
    <path d="M.6 7.409a.6.6 0 0 1 .601.6A6.808 6.808 0 0 0 8 14.801h.009a6.81 6.81 0 0 0 4.794-11.616A6.758 6.758 0 0 0 8.001 1.2h-.009a6.73 6.73 0 0 0-5.164 2.403l2.268-.004h.001A.6.6 0 0 1 5.098 4.8l-3.45.004h-.001a.6.6 0 0 1-.6-.599L1.042.756A.6.6 0 1 1 2.243.754l.002 1.691A7.919 7.919 0 0 1 7.99 0h.011c2.133 0 4.139.829 5.649 2.336A8.01 8.01 0 0 1 8.01 16h-.009A8.01 8.01 0 0 1 0 8.01a.6.6 0 0 1 .6-.601z"/>
</svg>

<?xml version="1.0" encoding="UTF-8"?>
<svg width="16px" height="16px" viewBox="0 0 16 16" version="1.1" xmlns="http://www.w3.org/2000/svg" xmlns:xlink="http://www.w3.org/1999/xlink">
    <!-- Generator: sketchtool 51.3 (57544) - http://www.bohemiancoding.com/sketch -->
    <title>turn-left</title>
    <desc>Created with sketchtool.</desc>
    <defs></defs>
    <g id="Icons" stroke="none" stroke-width="1" fill="none" fill-rule="evenodd">
        <g id="Operation" transform="translate(-200.000000, -236.000000)" fill="#000000">
            <g id="arrow/turn-left" transform="translate(200.000000, 236.000000)">
                <path d="M0.6,7.409 L0.6,7.409 C0.932,7.409 1.2,7.677 1.201,8.009 C1.205,11.755 4.255,14.801 8,14.801 L8.009,14.801 C11.759,14.795 14.805,11.74 14.8,7.991 C14.798,6.175 14.089,4.468 12.803,3.185 C11.519,1.905 9.814,1.2 8.001,1.2 L7.992,1.2 C5.976,1.202 4.121,2.078 2.828,3.603 L5.096,3.599 L5.097,3.599 C5.428,3.599 5.696,3.867 5.697,4.199 C5.697,4.53 5.429,4.799 5.098,4.8 L1.648,4.804 L1.647,4.804 C1.316,4.804 1.047,4.536 1.047,4.205 L1.042,0.756 C1.042,0.424 1.31,0.155 1.642,0.155 L1.642,0.155 C1.974,0.155 2.242,0.423 2.243,0.754 L2.245,2.445 C3.743,0.884 5.788,0.002 7.99,0 L8.001,0 C10.134,0 12.14,0.829 13.65,2.336 C15.163,3.845 15.998,5.853 16,7.99 C16.006,12.4 12.422,15.994 8.01,16 L8.001,16 C3.594,16 0.006,12.418 0,8.01 C0,7.679 0.268,7.409 0.6,7.409 L0.6,7.409 Z" id="Shape"></path>
            </g>
        </g>
    </g>
</svg>
